svg/design/border_right_line.svg

<?xml version="1.0" encoding="UTF-8"?>
<svg width="24px" height="24px" viewBox="0 0 24 24" version="1.1" xmlns="http://www.w3.org/2000/svg" xmlns:xlink="http://www.w3.org/1999/xlink">
    <title>border_right_line</title>
    <g id="Icon" stroke="none" stroke-width="1" fill="none" fill-rule="evenodd">
        <g id="Design" transform="translate(-48.000000, -384.000000)" fill-rule="nonzero">
            <g id="border_right_line" transform="translate(48.000000, 384.000000)">
                <path d="M24,0 L24,24 L0,24 L0,0 L24,0 Z M12.5935,23.2578 L12.5819,23.2595 L12.5109,23.295 L12.4919,23.2987 L12.4767,23.295 L12.4057,23.2595 C12.3958,23.2564 12.387,23.259 12.3821,23.2649 L12.378,23.2758 L12.3609,23.7031 L12.3659,23.7235 L12.3769,23.7357 L12.4805,23.8097 L12.4953,23.8136 L12.5071,23.8097 L12.6107,23.7357 L12.6233,23.7197 L12.6267,23.7031 L12.6096,23.2758 C12.6076,23.2657 12.601,23.2593 12.5935,23.2578 Z M12.8584,23.1453 L12.8445,23.1473 L12.6598,23.2397 L12.6499,23.2499 L12.6472,23.2611 L12.6651,23.6906 L12.6699,23.7034 L12.6784,23.7105 L12.8793,23.8032 C12.8914,23.8069 12.9022,23.803 12.9078,23.7952 L12.9118,23.7812 L12.8777,23.1665 C12.8753,23.1546 12.8674,23.147 12.8584,23.1453 Z M12.143,23.1473 C12.1332,23.1424 12.1222,23.1453 12.1156,23.1526 L12.1099,23.1665 L12.0758,23.7812 C12.0751,23.7927 12.0828,23.8019 12.0926,23.8046 L12.1083,23.8032 L12.3092,23.7105 L12.3186,23.7024 L12.3225,23.6906 L12.3404,23.2611 L12.3372,23.2485 L12.3278,23.2397 L12.143,23.1473 Z" id="MingCute"></path>
                <path d="M5,4 C5,4.55228 4.55228,5 4,5 C3.44772,5 3,4.55228 3,4 C3,3.44772 3.44772,3 4,3 C4.55228,3 5,3.44772 5,4 Z M9,4 C9,4.55228 8.55228,5 8,5 C7.44772,5 7,4.55228 7,4 C7,3.44772 7.44772,3 8,3 C8.55228,3 9,3.44772 9,4 Z M12,5 C12.5523,5 13,4.55228 13,4 C13,3.44772 12.5523,3 12,3 C11.4477,3 11,3.44772 11,4 C11,4.55228 11.4477,5 12,5 Z M17,4 C17,4.55228 16.5523,5 16,5 C15.4477,5 15,4.55228 15,4 C15,3.44772 15.4477,3 16,3 C16.5523,3 17,3.44772 17,4 Z M5,20 C5,20.5523 4.55228,21 4,21 C3.44772,21 3,20.5523 3,20 C3,19.4477 3.44772,19 4,19 C4.55228,19 5,19.4477 5,20 Z M9,20 C9,20.5523 8.55228,21 8,21 C7.44772,21 7,20.5523 7,20 C7,19.4477 7.44772,19 8,19 C8.55228,19 9,19.4477 9,20 Z M12,21 C12.5523,21 13,20.5523 13,20 C13,19.4477 12.5523,19 12,19 C11.4477,19 11,19.4477 11,20 C11,20.5523 11.4477,21 12,21 Z M17,20 C17,20.5523 16.5523,21 16,21 C15.4477,21 15,20.5523 15,20 C15,19.4477 15.4477,19 16,19 C16.5523,19 17,19.4477 17,20 Z M12,15 C12.5523,15 13,15.4477 13,16 C13,16.5523 12.5523,17 12,17 C11.4477,17 11,16.5523 11,16 C11,15.4477 11.4477,15 12,15 Z M12,11 C12.5523,11 13,11.4477 13,12 C13,12.5523 12.5523,13 12,13 C11.4477,13 11,12.5523 11,12 C11,11.4477 11.4477,11 12,11 Z M13,8 C13,7.44771 12.5523,7 12,7 C11.4477,7 11,7.44771 11,8 C11,8.55229 11.4477,9 12,9 C12.5523,9 13,8.55229 13,8 Z M5,16 C5,15.4477 4.55228,15 4,15 C3.44772,15 3,15.4477 3,16 C3,16.5523 3.44772,17 4,17 C4.55228,17 5,16.5523 5,16 Z M5,12 C5,11.4477 4.55228,11 4,11 C3.44772,11 3,11.4477 3,12 C3,12.5523 3.44772,13 4,13 C4.55228,13 5,12.5523 5,12 Z M4,7 C4.55228,7 5,7.44771 5,8 C5,8.55229 4.55228,9 4,9 C3.44772,9 3,8.55229 3,8 C3,7.44771 3.44772,7 4,7 Z M8,13 C8.55228,13 9,12.5523 9,12 C9,11.4477 8.55228,11 8,11 C7.44772,11 7,11.4477 7,12 C7,12.5523 7.44772,13 8,13 Z M16,13 C16.5523,13 17,12.5523 17,12 C17,11.4477 16.5523,11 16,11 C15.4477,11 15,11.4477 15,12 C15,12.5523 15.4477,13 16,13 Z M21,4 C21,3.44772 20.5523,3 20,3 C19.4477,3 19,3.44772 19,4 L19,20 C19,20.5523 19.4477,21 20,21 C20.5523,21 21,20.5523 21,20 L21,4 Z" id="形状" fill="#09244B"></path>
            </g>
        </g>
    </g>
</svg>

<svg xmlns="http://www.w3.org/2000/svg" width="24" height="24"><g fill="none" fill-rule="nonzero"><path d="M24 0v24H0V0h24ZM12.594 23.258l-.012.002-.071.035-.02.004-.014-.004-.071-.036c-.01-.003-.019 0-.024.006l-.004.01-.017.428.005.02.01.013.104.074.015.004.012-.004.104-.074.012-.016.004-.017-.017-.427c-.002-.01-.009-.017-.016-.018Zm.264-.113-.014.002-.184.093-.01.01-.003.011.018.43.005.012.008.008.201.092c.012.004.023 0 .029-.008l.004-.014-.034-.614c-.003-.012-.01-.02-.02-.022Zm-.715.002a.023.023 0 0 0-.027.006l-.006.014-.034.614c0 .012.007.02.017.024l.015-.002.201-.093.01-.008.003-.011.018-.43-.003-.012-.01-.01-.184-.092Z"/><path fill="#09244B" d="M5 4a1 1 0 1 1-2 0 1 1 0 0 1 2 0Zm4 0a1 1 0 1 1-2 0 1 1 0 0 1 2 0Zm3 1a1 1 0 1 0 0-2 1 1 0 0 0 0 2Zm5-1a1 1 0 1 1-2 0 1 1 0 0 1 2 0ZM5 20a1 1 0 1 1-2 0 1 1 0 0 1 2 0Zm4 0a1 1 0 1 1-2 0 1 1 0 0 1 2 0Zm3 1a1 1 0 1 0 0-2 1 1 0 0 0 0 2Zm5-1a1 1 0 1 1-2 0 1 1 0 0 1 2 0Zm-5-5a1 1 0 1 1 0 2 1 1 0 0 1 0-2Zm0-4a1 1 0 1 1 0 2 1 1 0 0 1 0-2Zm1-3a1 1 0 1 0-2 0 1 1 0 0 0 2 0Zm-8 8a1 1 0 1 0-2 0 1 1 0 0 0 2 0Zm0-4a1 1 0 1 0-2 0 1 1 0 0 0 2 0ZM4 7a1 1 0 1 1 0 2 1 1 0 0 1 0-2Zm4 6a1 1 0 1 0 0-2 1 1 0 0 0 0 2Zm8 0a1 1 0 1 0 0-2 1 1 0 0 0 0 2Zm5-9a1 1 0 1 0-2 0v16a1 1 0 1 0 2 0V4Z"/></g></svg>
